(Exported by FreeCAD)
(Post Processor: grbl_post)
(Output Time:2018-04-22 15:17:22.237827)
(begin preamble)
G17 G90
G21
(begin operation: Default Tool001)
(Path: Default Tool001)
(Default Tool001)
(begin toolchange)
; M6 T1.0
M3 S0.0000
(finish operation: Default Tool001)
(begin operation: Contour001)
(Path: Contour001)
(Contour001)
(Compensated Tool Path. Diameter: 5.0)
G0 Z6.0000
G0 X1328.5504 Y256.4753
G0 Z4.0000
G1 X1328.5504 Y256.4753 Z-4.0000
G2 X1330.7000 Y254.0000 Z-4.0000 I-0.3504 J-2.4753
G1 X1330.7000 Y0.0000 Z-4.0000
G2 X1328.2000 Y-2.5000 Z-4.0000 I-2.5000 J0.0000
G1 X1300.0175 Y-2.5000 Z-4.0000
G3 X1202.5000 Y-100.0175 Z-4.0000 I-0.0169 J-97.5006
G1 X1202.5000 Y-152.4000 Z-4.0000
G2 X1200.0000 Y-154.9000 Z-4.0000 I-2.5000 J0.0000
G1 X1125.0000 Y-154.9000 Z-4.0000
G2 X1122.5000 Y-152.4000 Z-4.0000 I0.0000 J2.5000
G1 X1122.5000 Y254.0000 Z-4.0000
G2 X1125.0000 Y256.5000 Z-4.0000 I2.5000 J-0.0000
G1 X1328.2000 Y256.5000 Z-4.0000
G2 X1328.5504 Y256.4753 Z-4.0000 I-0.0000 J-2.5000
G0 X1328.5504 Y256.4753 Z6.0000
G0 X1101.4998 Y253.4335 Z6.0000
G0 X1101.4998 Y253.4335 Z0.0000
G1 X1101.4998 Y253.4335 Z-4.0000
G2 X1101.5000 Y253.4000 Z-4.0000 I-2.4998 J-0.0335
G1 X1101.5000 Y-153.0000 Z-4.0000
G2 X1099.0000 Y-155.5000 Z-4.0000 I-2.5000 J0.0000
G1 X1024.0000 Y-155.5000 Z-4.0000
G2 X1021.5000 Y-153.0000 Z-4.0000 I0.0000 J2.5000
G1 X1021.5000 Y-100.6175 Z-4.0000
G3 X923.9825 Y-3.1000 Z-4.0000 I-97.5006 J0.0169
G1 X895.8000 Y-3.1000 Z-4.0000
G2 X893.3000 Y-0.6000 Z-4.0000 I0.0000 J2.5000
G1 X893.3000 Y253.4000 Z-4.0000
G2 X895.8000 Y255.9000 Z-4.0000 I2.5000 J-0.0000
G1 X1099.0000 Y255.9000 Z-4.0000
G2 X1101.4998 Y253.4335 Z-4.0000 I-0.0000 J-2.5000
G0 X1101.4998 Y253.4335 Z6.0000
G0 X878.8000 Y253.4335 Z6.0000
G0 X878.8000 Y253.4335 Z0.0000
G1 X878.8000 Y253.4335 Z-4.0000
G1 X878.8000 Y201.0000 Z-4.0000
G2 X876.3000 Y198.5000 Z-4.0000 I-2.5000 J0.0000
G1 X0.0000 Y198.5000 Z-4.0000
G2 X-2.5000 Y201.0000 Z-4.0000 I0.0000 J2.5000
G1 X-2.5000 Y404.2000 Z-4.0000
G2 X0.0000 Y406.7000 Z-4.0000 I2.5000 J-0.0000
G1 X876.3000 Y406.7000 Z-4.0000
G2 X878.8000 Y404.2000 Z-4.0000 I-0.0000 J-2.5000
G1 X878.8000 Y253.4335 Z-4.0000
G0 X878.8000 Y253.4335 Z6.0000
G0 X876.3902 Y186.6484 Z6.0000
G0 X876.3902 Y186.6484 Z0.0000
G1 X876.3902 Y186.6484 Z-4.0000
G2 X878.8000 Y184.1500 Z-4.0000 I-0.0902 J-2.4984
G1 X878.8000 Y0.0000 Z-4.0000
G2 X876.3000 Y-2.5000 Z-4.0000 I-2.5000 J0.0000
G1 X0.0000 Y-2.5000 Z-4.0000
G2 X-2.5000 Y0.0000 Z-4.0000 I0.0000 J2.5000
G1 X-2.5000 Y184.1500 Z-4.0000
G2 X0.0000 Y186.6500 Z-4.0000 I2.5000 J-0.0000
G1 X876.3000 Y186.6500 Z-4.0000
G2 X876.3902 Y186.6484 Z-4.0000 I-0.0000 J-2.5000
G0 X876.3902 Y186.6484 Z6.0000
G0 X890.3972 Y-4.3711 Z6.0000
G0 X890.3972 Y-4.3711 Z0.0000
G1 X890.3972 Y-4.3711 Z-4.0000
G2 X890.5800 Y-4.3644 Z-4.0000 I0.1828 J-2.4933
G1 X903.2800 Y-4.3644 Z-4.0000
G2 X912.1261 Y-13.0742 Z-4.0000 I-0.0049 J-8.8521
G1 X912.1300 Y-57.6250 Z-4.0000
G3 X928.7003 Y-74.2132 Z-4.0000 I16.5507 J-0.0374
G3 X945.2312 Y-57.5859 Z-4.0000 I-0.0196 J16.5507
G2 X969.2775 Y-57.5522 Z-4.0000 I12.0233 J-0.0791
G2 X932.3752 Y-98.0953 Z-4.0000 I-40.5958 J-0.1155
G2 X888.0806 Y-57.7205 Z-4.0000 I-3.6952 J40.4309
G1 X888.0800 Y-6.8644 Z-4.0000
G2 X890.3972 Y-4.3711 Z-4.0000 I2.5000 J-0.0000
G0 X890.3972 Y-4.3711 Z6.0000
G0 X878.3644 Y-12.5899 Z6.0000
G0 X878.3644 Y-12.5899 Z0.0000
G1 X878.3644 Y-12.5899 Z-4.0000
G2 X878.8000 Y-14.0000 Z-4.0000 I-2.0644 J-1.4101
G1 X878.8000 Y-198.1500 Z-4.0000
G2 X876.3000 Y-200.6500 Z-4.0000 I-2.5000 J0.0000
G1 X0.0000 Y-200.6500 Z-4.0000
G2 X-2.5000 Y-198.1500 Z-4.0000 I0.0000 J2.5000
G1 X-2.5000 Y-14.0000 Z-4.0000
G2 X0.0000 Y-11.5000 Z-4.0000 I2.5000 J-0.0000
G1 X876.3000 Y-11.5000 Z-4.0000
G2 X878.3644 Y-12.5899 Z-4.0000 I-0.0000 J-2.5000
G0 X878.3644 Y-12.5899 Z6.0000
G0 X885.7951 Y-92.0159 Z6.0000
G0 X885.7951 Y-92.0159 Z0.0000
G1 X885.7951 Y-92.0159 Z-4.0000
G2 X886.0280 Y-92.0050 Z-4.0000 I0.2329 J-2.4891
G1 X898.7280 Y-92.0050 Z-4.0000
G2 X907.5741 Y-100.7148 Z-4.0000 I-0.0049 J-8.8521
G1 X907.5780 Y-145.2656 Z-4.0000
G3 X924.1483 Y-161.8538 Z-4.0000 I16.5507 J-0.0374
G3 X940.6792 Y-145.2265 Z-4.0000 I-0.0196 J16.5507
G2 X964.7255 Y-145.1928 Z-4.0000 I12.0233 J-0.0791
G2 X927.8232 Y-185.7359 Z-4.0000 I-40.5958 J-0.1155
G2 X883.5286 Y-145.3611 Z-4.0000 I-3.6952 J40.4309
G1 X883.5280 Y-94.5050 Z-4.0000
G2 X885.7951 Y-92.0159 Z-4.0000 I2.5000 J-0.0000
G0 X885.7951 Y-92.0159 Z6.0000
G0 X971.2220 Y-119.7334 Z6.0000
G0 X971.2220 Y-119.7334 Z0.0000
G1 X971.2220 Y-119.7334 Z-4.0000
G2 X973.6000 Y-118.0050 Z-4.0000 I2.3780 J-0.7716
G1 X986.3000 Y-118.0050 Z-4.0000
G2 X995.1461 Y-126.7148 Z-4.0000 I-0.0049 J-8.8521
G1 X995.1500 Y-171.2656 Z-4.0000
G3 X1011.7203 Y-187.8538 Z-4.0000 I16.5507 J-0.0374
G3 X1028.2512 Y-171.2265 Z-4.0000 I-0.0196 J16.5507
G2 X1052.2975 Y-171.1928 Z-4.0000 I12.0233 J-0.0791
G2 X1015.3952 Y-211.7359 Z-4.0000 I-40.5958 J-0.1155
G2 X971.1006 Y-171.3611 Z-4.0000 I-3.6952 J40.4309
G1 X971.1000 Y-120.5050 Z-4.0000
G2 X971.2220 Y-119.7334 Z-4.0000 I2.5000 J-0.0000
G0 X971.2220 Y-119.7334 Z6.0000
G0 X1211.1501 Y-119.7305 Z6.0000
G0 X1211.1501 Y-119.7305 Z0.0000
G1 X1211.1501 Y-119.7305 Z-4.0000
G1 X1211.1500 Y-109.9730 Z-4.0000
G2 X1213.6500 Y-107.4730 Z-4.0000 I2.5000 J-0.0000
G1 X1226.3500 Y-107.4730 Z-4.0000
G2 X1235.1961 Y-116.1828 Z-4.0000 I-0.0049 J-8.8521
G1 X1235.2000 Y-160.7336 Z-4.0000
G3 X1251.7703 Y-177.3218 Z-4.0000 I16.5507 J-0.0374
G3 X1268.3012 Y-160.6945 Z-4.0000 I-0.0196 J16.5507
G2 X1292.3475 Y-160.6608 Z-4.0000 I12.0233 J-0.0791
G2 X1255.4452 Y-201.2039 Z-4.0000 I-40.5958 J-0.1155
G2 X1211.1506 Y-160.8291 Z-4.0000 I-3.6952 J40.4309
G1 X1211.1501 Y-119.7305 Z-4.0000
G0 X1211.1501 Y-119.7305 Z6.0000
G0 X1242.8330 Y-100.5216 Z6.0000
G0 X1242.8330 Y-100.5216 Z0.0000
G1 X1242.8330 Y-100.5216 Z-4.0000
G2 X1236.9506 Y-79.5292 Z-4.0000 I34.7170 J21.0485
G1 X1236.9500 Y-28.6731 Z-4.0000
G2 X1239.4500 Y-26.1731 Z-4.0000 I2.5000 J-0.0000
G1 X1252.1500 Y-26.1731 Z-4.0000
G2 X1260.9961 Y-34.8829 Z-4.0000 I-0.0049 J-8.8521
G1 X1261.0000 Y-79.4337 Z-4.0000
G3 X1277.5703 Y-96.0219 Z-4.0000 I16.5507 J-0.0374
G3 X1294.1012 Y-79.3946 Z-4.0000 I-0.0196 J16.5507
G2 X1318.1475 Y-79.3609 Z-4.0000 I12.0233 J-0.0791
G2 X1281.2452 Y-119.9040 Z-4.0000 I-40.5958 J-0.1155
G2 X1242.8330 Y-100.5216 Z-4.0000 I-3.6952 J40.4309
G0 X1242.8330 Y-100.5216 Z6.0000
G0 X1295.1121 Y-117.4854 Z6.0000
G0 X1295.1121 Y-117.4854 Z0.0000
G1 X1295.1121 Y-117.4854 Z-4.0000
G2 X1297.4900 Y-115.7570 Z-4.0000 I2.3779 J-0.7716
G1 X1310.1900 Y-115.7570 Z-4.0000
G2 X1319.0361 Y-124.4668 Z-4.0000 I-0.0049 J-8.8521
G1 X1319.0400 Y-169.0176 Z-4.0000
G3 X1335.6103 Y-185.6058 Z-4.0000 I16.5507 J-0.0374
G3 X1352.1412 Y-168.9785 Z-4.0000 I-0.0196 J16.5507
G2 X1376.1875 Y-168.9448 Z-4.0000 I12.0233 J-0.0791
G2 X1339.2852 Y-209.4879 Z-4.0000 I-40.5958 J-0.1155
G2 X1294.9906 Y-169.1131 Z-4.0000 I-3.6952 J40.4309
G1 X1294.9900 Y-118.2570 Z-4.0000
G2 X1295.1121 Y-117.4854 Z-4.0000 I2.5000 J-0.0000
G0 X1295.1121 Y-117.4854 Z6.0000
G0 X877.8384 Y417.0294 Z6.0000
G0 X877.8384 Y417.0294 Z0.0000
G1 X877.8384 Y417.0294 Z-4.0000
G2 X876.3000 Y416.5000 Z-4.0000 I-1.5384 J1.9706
G1 X0.0000 Y416.5000 Z-4.0000
G2 X-2.5000 Y419.0000 Z-4.0000 I0.0000 J2.5000
G1 X-2.5000 Y590.4500 Z-4.0000
G2 X0.0000 Y592.9500 Z-4.0000 I2.5000 J-0.0000
G1 X876.3000 Y592.9500 Z-4.0000
G2 X878.8000 Y590.4500 Z-4.0000 I-0.0000 J-2.5000
G1 X878.8000 Y419.0000 Z-4.0000
G2 X877.8384 Y417.0294 Z-4.0000 I-2.5000 J0.0000
G1 X877.8384 Y417.0294 Z-9.0000
G2 X876.3000 Y416.5000 Z-9.0000 I-1.5384 J1.9706
G1 X0.0000 Y416.5000 Z-9.0000
G2 X-2.5000 Y419.0000 Z-9.0000 I0.0000 J2.5000
G1 X-2.5000 Y590.4500 Z-9.0000
G2 X0.0000 Y592.9500 Z-9.0000 I2.5000 J-0.0000
G1 X876.3000 Y592.9500 Z-9.0000
G2 X878.8000 Y590.4500 Z-9.0000 I-0.0000 J-2.5000
G1 X878.8000 Y419.0000 Z-9.0000
G2 X877.8384 Y417.0294 Z-9.0000 I-2.5000 J0.0000
G0 X877.8384 Y417.0294 Z6.0000
G0 X876.5976 Y406.6822 Z6.0000
G0 X876.5976 Y406.6822 Z-5.0000
G1 X876.5976 Y406.6822 Z-9.0000
G2 X878.8000 Y404.2000 Z-9.0000 I-0.2976 J-2.4822
G1 X878.8000 Y201.0000 Z-9.0000
G2 X876.3000 Y198.5000 Z-9.0000 I-2.5000 J0.0000
G1 X0.0000 Y198.5000 Z-9.0000
G2 X-2.5000 Y201.0000 Z-9.0000 I0.0000 J2.5000
G1 X-2.5000 Y404.2000 Z-9.0000
G2 X0.0000 Y406.7000 Z-9.0000 I2.5000 J-0.0000
G1 X876.3000 Y406.7000 Z-9.0000
G2 X876.5976 Y406.6822 Z-9.0000 I-0.0000 J-2.5000
G0 X876.5976 Y406.6822 Z6.0000
G0 X895.4892 Y255.8806 Z6.0000
G0 X895.4892 Y255.8806 Z-5.0000
G1 X895.4892 Y255.8806 Z-9.0000
G2 X895.8000 Y255.9000 Z-9.0000 I0.3108 J-2.4806
G1 X1099.0000 Y255.9000 Z-9.0000
G2 X1101.5000 Y253.4000 Z-9.0000 I-0.0000 J-2.5000
G1 X1101.5000 Y-153.0000 Z-9.0000
G2 X1099.0000 Y-155.5000 Z-9.0000 I-2.5000 J0.0000
G1 X1024.0000 Y-155.5000 Z-9.0000
G2 X1021.5000 Y-153.0000 Z-9.0000 I0.0000 J2.5000
G1 X1021.5000 Y-100.6175 Z-9.0000
G3 X923.9825 Y-3.1000 Z-9.0000 I-97.5006 J0.0169
G1 X895.8000 Y-3.1000 Z-9.0000
G2 X893.3000 Y-0.6000 Z-9.0000 I0.0000 J2.5000
G1 X893.3000 Y253.4000 Z-9.0000
G2 X895.4892 Y255.8806 Z-9.0000 I2.5000 J-0.0000
G0 X895.4892 Y255.8806 Z6.0000
G0 X876.9461 Y186.5651 Z6.0000
G0 X876.9461 Y186.5651 Z-5.0000
G1 X876.9461 Y186.5651 Z-9.0000
G2 X878.8000 Y184.1500 Z-9.0000 I-0.6461 J-2.4151
G1 X878.8000 Y0.0000 Z-9.0000
G2 X876.3000 Y-2.5000 Z-9.0000 I-2.5000 J0.0000
G1 X0.0000 Y-2.5000 Z-9.0000
G2 X-2.5000 Y0.0000 Z-9.0000 I0.0000 J2.5000
G1 X-2.5000 Y184.1500 Z-9.0000
G2 X0.0000 Y186.6500 Z-9.0000 I2.5000 J-0.0000
G1 X876.3000 Y186.6500 Z-9.0000
G2 X876.9461 Y186.5651 Z-9.0000 I-0.0000 J-2.5000
G0 X876.9461 Y186.5651 Z6.0000
G0 X890.4042 Y-4.3706 Z6.0000
G0 X890.4042 Y-4.3706 Z-5.0000
G1 X890.4042 Y-4.3706 Z-9.0000
G2 X890.5800 Y-4.3644 Z-9.0000 I0.1758 J-2.4938
G1 X903.2800 Y-4.3644 Z-9.0000
G2 X912.1261 Y-13.0742 Z-9.0000 I-0.0049 J-8.8521
G1 X912.1300 Y-57.6250 Z-9.0000
G3 X928.7003 Y-74.2132 Z-9.0000 I16.5507 J-0.0374
G3 X945.2312 Y-57.5859 Z-9.0000 I-0.0196 J16.5507
G2 X969.2775 Y-57.5522 Z-9.0000 I12.0233 J-0.0791
G2 X932.3752 Y-98.0953 Z-9.0000 I-40.5958 J-0.1155
G2 X888.0806 Y-57.7205 Z-9.0000 I-3.6952 J40.4309
G1 X888.0800 Y-6.8644 Z-9.0000
G2 X890.4042 Y-4.3706 Z-9.0000 I2.5000 J-0.0000
G0 X890.4042 Y-4.3706 Z6.0000
G0 X878.3647 Y-12.5904 Z6.0000
G0 X878.3647 Y-12.5904 Z-5.0000
G1 X878.3647 Y-12.5904 Z-9.0000
G2 X878.8000 Y-14.0000 Z-9.0000 I-2.0647 J-1.4096
G1 X878.8000 Y-198.1500 Z-9.0000
G2 X876.3000 Y-200.6500 Z-9.0000 I-2.5000 J0.0000
G1 X0.0000 Y-200.6500 Z-9.0000
G2 X-2.5000 Y-198.1500 Z-9.0000 I0.0000 J2.5000
G1 X-2.5000 Y-14.0000 Z-9.0000
G2 X0.0000 Y-11.5000 Z-9.0000 I2.5000 J-0.0000
G1 X876.3000 Y-11.5000 Z-9.0000
G2 X878.3647 Y-12.5904 Z-9.0000 I-0.0000 J-2.5000
G0 X878.3647 Y-12.5904 Z6.0000
G0 X885.7951 Y-92.0159 Z6.0000
G0 X885.7951 Y-92.0159 Z-5.0000
G1 X885.7951 Y-92.0159 Z-9.0000
G2 X886.0280 Y-92.0050 Z-9.0000 I0.2329 J-2.4891
G1 X898.7280 Y-92.0050 Z-9.0000
G2 X907.5741 Y-100.7148 Z-9.0000 I-0.0049 J-8.8521
G1 X907.5780 Y-145.2656 Z-9.0000
G3 X924.1483 Y-161.8538 Z-9.0000 I16.5507 J-0.0374
G3 X940.6792 Y-145.2265 Z-9.0000 I-0.0196 J16.5507
G2 X964.7255 Y-145.1928 Z-9.0000 I12.0233 J-0.0791
G2 X927.8232 Y-185.7359 Z-9.0000 I-40.5958 J-0.1155
G2 X883.5286 Y-145.3611 Z-9.0000 I-3.6952 J40.4309
G1 X883.5280 Y-94.5050 Z-9.0000
G2 X885.7951 Y-92.0159 Z-9.0000 I2.5000 J-0.0000
G0 X885.7951 Y-92.0159 Z6.0000
G0 X971.2220 Y-119.7334 Z6.0000
G0 X971.2220 Y-119.7334 Z-5.0000
G1 X971.2220 Y-119.7334 Z-9.0000
G2 X973.6000 Y-118.0050 Z-9.0000 I2.3780 J-0.7716
G1 X986.3000 Y-118.0050 Z-9.0000
G2 X995.1461 Y-126.7148 Z-9.0000 I-0.0049 J-8.8521
G1 X995.1500 Y-171.2656 Z-9.0000
G3 X1011.7203 Y-187.8538 Z-9.0000 I16.5507 J-0.0374
G3 X1028.2512 Y-171.2265 Z-9.0000 I-0.0196 J16.5507
G2 X1052.2975 Y-171.1928 Z-9.0000 I12.0233 J-0.0791
G2 X1015.3952 Y-211.7359 Z-9.0000 I-40.5958 J-0.1155
G2 X971.1006 Y-171.3611 Z-9.0000 I-3.6952 J40.4309
G1 X971.1000 Y-120.5050 Z-9.0000
G2 X971.2220 Y-119.7334 Z-9.0000 I2.5000 J-0.0000
G0 X971.2220 Y-119.7334 Z6.0000
G0 X1122.5000 Y-119.7334 Z6.0000
G0 X1122.5000 Y-119.7334 Z-5.0000
G1 X1122.5000 Y-119.7334 Z-9.0000
G1 X1122.5000 Y254.0000 Z-9.0000
G2 X1125.0000 Y256.5000 Z-9.0000 I2.5000 J-0.0000
G1 X1328.2000 Y256.5000 Z-9.0000
G2 X1330.7000 Y254.0000 Z-9.0000 I-0.0000 J-2.5000
G1 X1330.7000 Y0.0000 Z-9.0000
G2 X1328.2000 Y-2.5000 Z-9.0000 I-2.5000 J0.0000
G1 X1300.0175 Y-2.5000 Z-9.0000
G3 X1202.5000 Y-100.0175 Z-9.0000 I-0.0169 J-97.5006
G1 X1202.5000 Y-152.4000 Z-9.0000
G2 X1200.0000 Y-154.9000 Z-9.0000 I-2.5000 J0.0000
G1 X1125.0000 Y-154.9000 Z-9.0000
G2 X1122.5000 Y-152.4000 Z-9.0000 I0.0000 J2.5000
G1 X1122.5000 Y-119.7334 Z-9.0000
G0 X1122.5000 Y-119.7334 Z6.0000
G0 X1211.1501 Y-119.7323 Z6.0000
G0 X1211.1501 Y-119.7323 Z-5.0000
G1 X1211.1501 Y-119.7323 Z-9.0000
G1 X1211.1500 Y-109.9730 Z-9.0000
G2 X1213.6500 Y-107.4730 Z-9.0000 I2.5000 J-0.0000
G1 X1226.3500 Y-107.4730 Z-9.0000
G2 X1235.1961 Y-116.1828 Z-9.0000 I-0.0049 J-8.8521
G1 X1235.2000 Y-160.7336 Z-9.0000
G3 X1251.7703 Y-177.3218 Z-9.0000 I16.5507 J-0.0374
G3 X1268.3012 Y-160.6945 Z-9.0000 I-0.0196 J16.5507
G2 X1292.3475 Y-160.6608 Z-9.0000 I12.0233 J-0.0791
G2 X1255.4452 Y-201.2039 Z-9.0000 I-40.5958 J-0.1155
G2 X1211.1506 Y-160.8291 Z-9.0000 I-3.6952 J40.4309
G1 X1211.1501 Y-119.7323 Z-9.0000
G0 X1211.1501 Y-119.7323 Z6.0000
G0 X1242.8334 Y-100.5223 Z6.0000
G0 X1242.8334 Y-100.5223 Z-5.0000
G1 X1242.8334 Y-100.5223 Z-9.0000
G2 X1236.9506 Y-79.5292 Z-9.0000 I34.7166 J21.0492
G1 X1236.9500 Y-28.6731 Z-9.0000
G2 X1239.4500 Y-26.1731 Z-9.0000 I2.5000 J-0.0000
G1 X1252.1500 Y-26.1731 Z-9.0000
G2 X1260.9961 Y-34.8829 Z-9.0000 I-0.0049 J-8.8521
G1 X1261.0000 Y-79.4337 Z-9.0000
G3 X1277.5703 Y-96.0219 Z-9.0000 I16.5507 J-0.0374
G3 X1294.1012 Y-79.3946 Z-9.0000 I-0.0196 J16.5507
G2 X1318.1475 Y-79.3609 Z-9.0000 I12.0233 J-0.0791
G2 X1281.2452 Y-119.9040 Z-9.0000 I-40.5958 J-0.1155
G2 X1242.8334 Y-100.5223 Z-9.0000 I-3.6952 J40.4309
G0 X1242.8334 Y-100.5223 Z6.0000
G0 X1295.1120 Y-117.4854 Z6.0000
G0 X1295.1120 Y-117.4854 Z-5.0000
G1 X1295.1120 Y-117.4854 Z-9.0000
G2 X1297.4900 Y-115.7570 Z-9.0000 I2.3780 J-0.7716
G1 X1310.1900 Y-115.7570 Z-9.0000
G2 X1319.0361 Y-124.4668 Z-9.0000 I-0.0049 J-8.8521
G1 X1319.0400 Y-169.0176 Z-9.0000
G3 X1335.6103 Y-185.6058 Z-9.0000 I16.5507 J-0.0374
G3 X1352.1412 Y-168.9785 Z-9.0000 I-0.0196 J16.5507
G2 X1376.1875 Y-168.9448 Z-9.0000 I12.0233 J-0.0791
G2 X1339.2852 Y-209.4879 Z-9.0000 I-40.5958 J-0.1155
G2 X1294.9906 Y-169.1131 Z-9.0000 I-3.6952 J40.4309
G1 X1294.9900 Y-118.2570 Z-9.0000
G2 X1295.1120 Y-117.4854 Z-9.0000 I2.5000 J-0.0000
G1 X1295.1120 Y-117.4854 Z-14.0000
G2 X1297.4900 Y-115.7570 Z-14.0000 I2.3780 J-0.7716
G1 X1310.1900 Y-115.7570 Z-14.0000
G2 X1319.0361 Y-124.4668 Z-14.0000 I-0.0049 J-8.8521
G1 X1319.0400 Y-169.0176 Z-14.0000
G3 X1335.6103 Y-185.6058 Z-14.0000 I16.5507 J-0.0374
G3 X1352.1412 Y-168.9785 Z-14.0000 I-0.0196 J16.5507
G2 X1376.1875 Y-168.9448 Z-14.0000 I12.0233 J-0.0791
G2 X1339.2852 Y-209.4879 Z-14.0000 I-40.5958 J-0.1155
G2 X1294.9906 Y-169.1131 Z-14.0000 I-3.6952 J40.4309
G1 X1294.9900 Y-118.2570 Z-14.0000
G2 X1295.1120 Y-117.4854 Z-14.0000 I2.5000 J-0.0000
G0 X1295.1120 Y-117.4854 Z6.0000
G0 X1294.5779 Y-116.3293 Z6.0000
G0 X1294.5779 Y-116.3293 Z-10.0000
G1 X1294.5779 Y-116.3293 Z-14.0000
G2 X1281.2452 Y-119.9040 Z-14.0000 I-17.0262 J36.8529
G2 X1236.9506 Y-79.5292 Z-14.0000 I-3.6952 J40.4309
G1 X1236.9500 Y-28.6731 Z-14.0000
G2 X1239.4500 Y-26.1731 Z-14.0000 I2.5000 J-0.0000
G1 X1252.1500 Y-26.1731 Z-14.0000
G2 X1260.9961 Y-34.8829 Z-14.0000 I-0.0049 J-8.8521
G1 X1261.0000 Y-79.4337 Z-14.0000
G3 X1277.5703 Y-96.0219 Z-14.0000 I16.5507 J-0.0374
G3 X1294.1012 Y-79.3946 Z-14.0000 I-0.0196 J16.5507
G2 X1318.1475 Y-79.3609 Z-14.0000 I12.0233 J-0.0791
G2 X1294.5779 Y-116.3293 Z-14.0000 I-40.5958 J-0.1155
G0 X1294.5779 Y-116.3293 Z6.0000
G0 X1283.9963 Y-149.3244 Z6.0000
G0 X1283.9963 Y-149.3244 Z-10.0000
G1 X1283.9963 Y-149.3244 Z-14.0000
G2 X1292.3475 Y-160.6608 Z-14.0000 I-3.6718 J-11.4491
G2 X1255.4452 Y-201.2039 Z-14.0000 I-40.5958 J-0.1155
G2 X1211.1506 Y-160.8291 Z-14.0000 I-3.6952 J40.4309
G1 X1211.1500 Y-109.9730 Z-14.0000
G2 X1213.6500 Y-107.4730 Z-14.0000 I2.5000 J-0.0000
G1 X1226.3500 Y-107.4730 Z-14.0000
G2 X1235.1961 Y-116.1828 Z-14.0000 I-0.0049 J-8.8521
G1 X1235.2000 Y-160.7336 Z-14.0000
G3 X1251.7703 Y-177.3218 Z-14.0000 I16.5507 J-0.0374
G3 X1268.3012 Y-160.6945 Z-14.0000 I-0.0196 J16.5507
G2 X1283.9963 Y-149.3244 Z-14.0000 I12.0233 J-0.0791
G0 X1283.9963 Y-149.3244 Z6.0000
G0 X1202.5000 Y-149.3244 Z6.0000
G0 X1202.5000 Y-149.3244 Z-10.0000
G1 X1202.5000 Y-149.3244 Z-14.0000
G1 X1202.5000 Y-152.4000 Z-14.0000
G2 X1200.0000 Y-154.9000 Z-14.0000 I-2.5000 J0.0000
G1 X1125.0000 Y-154.9000 Z-14.0000
G2 X1122.5000 Y-152.4000 Z-14.0000 I0.0000 J2.5000
G1 X1122.5000 Y254.0000 Z-14.0000
G2 X1125.0000 Y256.5000 Z-14.0000 I2.5000 J-0.0000
G1 X1328.2000 Y256.5000 Z-14.0000
G2 X1330.7000 Y254.0000 Z-14.0000 I-0.0000 J-2.5000
G1 X1330.7000 Y0.0000 Z-14.0000
G2 X1328.2000 Y-2.5000 Z-14.0000 I-2.5000 J0.0000
G1 X1300.0175 Y-2.5000 Z-14.0000
G3 X1202.5000 Y-100.0175 Z-14.0000 I-0.0169 J-97.5006
G1 X1202.5000 Y-149.3244 Z-14.0000
G0 X1202.5000 Y-149.3244 Z6.0000
G0 X1101.5000 Y-149.3244 Z6.0000
G0 X1101.5000 Y-149.3244 Z-10.0000
G1 X1101.5000 Y-149.3244 Z-14.0000
G1 X1101.5000 Y-153.0000 Z-14.0000
G2 X1099.0000 Y-155.5000 Z-14.0000 I-2.5000 J0.0000
G1 X1024.0000 Y-155.5000 Z-14.0000
G2 X1021.5000 Y-153.0000 Z-14.0000 I0.0000 J2.5000
G1 X1021.5000 Y-100.6175 Z-14.0000
G3 X923.9825 Y-3.1000 Z-14.0000 I-97.5006 J0.0169
G1 X895.8000 Y-3.1000 Z-14.0000
G2 X893.3000 Y-0.6000 Z-14.0000 I0.0000 J2.5000
G1 X893.3000 Y253.4000 Z-14.0000
G2 X895.8000 Y255.9000 Z-14.0000 I2.5000 J-0.0000
G1 X1099.0000 Y255.9000 Z-14.0000
G2 X1101.5000 Y253.4000 Z-14.0000 I-0.0000 J-2.5000
G1 X1101.5000 Y-149.3244 Z-14.0000
G0 X1101.5000 Y-149.3244 Z6.0000
G0 X1051.5908 Y-167.2428 Z6.0000
G0 X1051.5908 Y-167.2428 Z-10.0000
G1 X1051.5908 Y-167.2428 Z-14.0000
G2 X1052.2975 Y-171.1928 Z-14.0000 I-11.3163 J-4.0628
G2 X1015.3952 Y-211.7359 Z-14.0000 I-40.5958 J-0.1155
G2 X971.1006 Y-171.3611 Z-14.0000 I-3.6952 J40.4309
G1 X971.1000 Y-120.5050 Z-14.0000
G2 X973.6000 Y-118.0050 Z-14.0000 I2.5000 J-0.0000
G1 X986.3000 Y-118.0050 Z-14.0000
G2 X995.1461 Y-126.7148 Z-14.0000 I-0.0049 J-8.8521
G1 X995.1500 Y-171.2656 Z-14.0000
G3 X1011.7203 Y-187.8538 Z-14.0000 I16.5507 J-0.0374
G3 X1028.2512 Y-171.2265 Z-14.0000 I-0.0196 J16.5507
G2 X1051.5908 Y-167.2428 Z-14.0000 I12.0233 J-0.0791
G0 X1051.5908 Y-167.2428 Z6.0000
G0 X964.1376 Y-152.1932 Z6.0000
G0 X964.1376 Y-152.1932 Z-10.0000
G1 X964.1376 Y-152.1932 Z-14.0000
G2 X927.8232 Y-185.7359 Z-14.0000 I-40.0079 J6.8848
G2 X883.5286 Y-145.3611 Z-14.0000 I-3.6952 J40.4309
G1 X883.5280 Y-94.5050 Z-14.0000
G2 X886.0280 Y-92.0050 Z-14.0000 I2.5000 J-0.0000
G1 X898.7280 Y-92.0050 Z-14.0000
G2 X907.5741 Y-100.7148 Z-14.0000 I-0.0049 J-8.8521
G1 X907.5780 Y-145.2656 Z-14.0000
G3 X924.1483 Y-161.8538 Z-14.0000 I16.5507 J-0.0374
G3 X940.6792 Y-145.2265 Z-14.0000 I-0.0196 J16.5507
G2 X964.7255 Y-145.1928 Z-14.0000 I12.0233 J-0.0791
G2 X964.1376 Y-152.1932 Z-14.0000 I-40.5958 J-0.1155
G0 X964.1376 Y-152.1932 Z6.0000
G0 X942.9390 Y-95.6777 Z6.0000
G0 X942.9390 Y-95.6777 Z-10.0000
G1 X942.9390 Y-95.6777 Z-14.0000
G2 X932.3752 Y-98.0953 Z-14.0000 I-14.2573 J38.0100
G2 X888.0806 Y-57.7205 Z-14.0000 I-3.6952 J40.4309
G1 X888.0800 Y-6.8644 Z-14.0000
G2 X890.5800 Y-4.3644 Z-14.0000 I2.5000 J-0.0000
G1 X903.2800 Y-4.3644 Z-14.0000
G2 X912.1261 Y-13.0742 Z-14.0000 I-0.0049 J-8.8521
G1 X912.1300 Y-57.6250 Z-14.0000
G3 X928.7003 Y-74.2132 Z-14.0000 I16.5507 J-0.0374
G3 X945.2312 Y-57.5859 Z-14.0000 I-0.0196 J16.5507
G2 X969.2775 Y-57.5522 Z-14.0000 I12.0233 J-0.0791
G2 X942.9390 Y-95.6777 Z-14.0000 I-40.5958 J-0.1155
G0 X942.9390 Y-95.6777 Z6.0000
G0 X878.8000 Y-95.6777 Z6.0000
G0 X878.8000 Y-95.6777 Z-10.0000
G1 X878.8000 Y-95.6777 Z-14.0000
G1 X878.8000 Y-198.1500 Z-14.0000
G2 X876.3000 Y-200.6500 Z-14.0000 I-2.5000 J0.0000
G1 X0.0000 Y-200.6500 Z-14.0000
G2 X-2.5000 Y-198.1500 Z-14.0000 I0.0000 J2.5000
G1 X-2.5000 Y-14.0000 Z-14.0000
G2 X0.0000 Y-11.5000 Z-14.0000 I2.5000 J-0.0000
G1 X876.3000 Y-11.5000 Z-14.0000
G2 X878.8000 Y-14.0000 Z-14.0000 I-0.0000 J-2.5000
G1 X878.8000 Y-95.6777 Z-14.0000
G0 X878.8000 Y-95.6777 Z6.0000
G0 X876.3653 Y-2.4991 Z6.0000
G0 X876.3653 Y-2.4991 Z-10.0000
G1 X876.3653 Y-2.4991 Z-14.0000
G2 X876.3000 Y-2.5000 Z-14.0000 I-0.0653 J2.4991
G1 X0.0000 Y-2.5000 Z-14.0000
G2 X-2.5000 Y0.0000 Z-14.0000 I0.0000 J2.5000
G1 X-2.5000 Y184.1500 Z-14.0000
G2 X0.0000 Y186.6500 Z-14.0000 I2.5000 J-0.0000
G1 X876.3000 Y186.6500 Z-14.0000
G2 X878.8000 Y184.1500 Z-14.0000 I-0.0000 J-2.5000
G1 X878.8000 Y0.0000 Z-14.0000
G2 X876.3653 Y-2.4991 Z-14.0000 I-2.5000 J0.0000
G0 X876.3653 Y-2.4991 Z6.0000
G0 X876.3000 Y198.5000 Z6.0000
G0 X876.3000 Y198.5000 Z-10.0000
G1 X876.3000 Y198.5000 Z-14.0000
G1 X0.0000 Y198.5000 Z-14.0000
G2 X-2.5000 Y201.0000 Z-14.0000 I0.0000 J2.5000
G1 X-2.5000 Y404.2000 Z-14.0000
G2 X0.0000 Y406.7000 Z-14.0000 I2.5000 J-0.0000
G1 X876.3000 Y406.7000 Z-14.0000
G2 X878.8000 Y404.2000 Z-14.0000 I-0.0000 J-2.5000
G1 X878.8000 Y201.0000 Z-14.0000
G2 X876.3000 Y198.5000 Z-14.0000 I-2.5000 J0.0000
G0 X876.3000 Y198.5000 Z6.0000
G0 X876.3000 Y416.5000 Z6.0000
G0 X876.3000 Y416.5000 Z-10.0000
G1 X876.3000 Y416.5000 Z-14.0000
G1 X0.0000 Y416.5000 Z-14.0000
G2 X-2.5000 Y419.0000 Z-14.0000 I0.0000 J2.5000
G1 X-2.5000 Y590.4500 Z-14.0000
G2 X0.0000 Y592.9500 Z-14.0000 I2.5000 J-0.0000
G1 X876.3000 Y592.9500 Z-14.0000
G2 X878.8000 Y590.4500 Z-14.0000 I-0.0000 J-2.5000
G1 X878.8000 Y419.0000 Z-14.0000
G2 X876.3000 Y416.5000 Z-14.0000 I-2.5000 J0.0000
G1 X876.3000 Y416.5000 Z-19.0000
G1 X0.0000 Y416.5000 Z-19.0000
G2 X-2.5000 Y419.0000 Z-19.0000 I0.0000 J2.5000
G1 X-2.5000 Y590.4500 Z-19.0000
G2 X0.0000 Y592.9500 Z-19.0000 I2.5000 J-0.0000
G1 X876.3000 Y592.9500 Z-19.0000
G2 X878.8000 Y590.4500 Z-19.0000 I-0.0000 J-2.5000
G1 X878.8000 Y419.0000 Z-19.0000
G2 X876.3000 Y416.5000 Z-19.0000 I-2.5000 J0.0000
G0 X876.3000 Y416.5000 Z6.0000
G0 X876.3000 Y406.7000 Z6.0000
G0 X876.3000 Y406.7000 Z-15.0000
G1 X876.3000 Y406.7000 Z-19.0000
G2 X878.8000 Y404.2000 Z-19.0000 I-0.0000 J-2.5000
G1 X878.8000 Y201.0000 Z-19.0000
G2 X876.3000 Y198.5000 Z-19.0000 I-2.5000 J0.0000
G1 X0.0000 Y198.5000 Z-19.0000
G2 X-2.5000 Y201.0000 Z-19.0000 I0.0000 J2.5000
G1 X-2.5000 Y404.2000 Z-19.0000
G2 X0.0000 Y406.7000 Z-19.0000 I2.5000 J-0.0000
G1 X876.3000 Y406.7000 Z-19.0000
G0 X876.3000 Y406.7000 Z6.0000
G0 X895.4845 Y255.8800 Z6.0000
G0 X895.4845 Y255.8800 Z-15.0000
G1 X895.4845 Y255.8800 Z-19.0000
G2 X895.8000 Y255.9000 Z-19.0000 I0.3155 J-2.4800
G1 X1099.0000 Y255.9000 Z-19.0000
G2 X1101.5000 Y253.4000 Z-19.0000 I-0.0000 J-2.5000
G1 X1101.5000 Y-153.0000 Z-19.0000
G2 X1099.0000 Y-155.5000 Z-19.0000 I-2.5000 J0.0000
G1 X1024.0000 Y-155.5000 Z-19.0000
G2 X1021.5000 Y-153.0000 Z-19.0000 I0.0000 J2.5000
G1 X1021.5000 Y-100.6175 Z-19.0000
G3 X923.9825 Y-3.1000 Z-19.0000 I-97.5006 J0.0169
G1 X895.8000 Y-3.1000 Z-19.0000
G2 X893.3000 Y-0.6000 Z-19.0000 I0.0000 J2.5000
G1 X893.3000 Y253.4000 Z-19.0000
G2 X895.4845 Y255.8800 Z-19.0000 I2.5000 J-0.0000
G0 X895.4845 Y255.8800 Z6.0000
G0 X876.9459 Y186.5651 Z6.0000
G0 X876.9459 Y186.5651 Z-15.0000
G1 X876.9459 Y186.5651 Z-19.0000
G2 X878.8000 Y184.1500 Z-19.0000 I-0.6459 J-2.4151
G1 X878.8000 Y0.0000 Z-19.0000
G2 X876.3000 Y-2.5000 Z-19.0000 I-2.5000 J0.0000
G1 X0.0000 Y-2.5000 Z-19.0000
G2 X-2.5000 Y0.0000 Z-19.0000 I0.0000 J2.5000
G1 X-2.5000 Y184.1500 Z-19.0000
G2 X0.0000 Y186.6500 Z-19.0000 I2.5000 J-0.0000
G1 X876.3000 Y186.6500 Z-19.0000
G2 X876.9459 Y186.5651 Z-19.0000 I-0.0000 J-2.5000
G0 X876.9459 Y186.5651 Z6.0000
G0 X890.4042 Y-4.3706 Z6.0000
G0 X890.4042 Y-4.3706 Z-15.0000
G1 X890.4042 Y-4.3706 Z-19.0000
G2 X890.5800 Y-4.3644 Z-19.0000 I0.1758 J-2.4938
G1 X903.2800 Y-4.3644 Z-19.0000
G2 X912.1261 Y-13.0742 Z-19.0000 I-0.0049 J-8.8521
G1 X912.1300 Y-57.6250 Z-19.0000
G3 X928.7003 Y-74.2132 Z-19.0000 I16.5507 J-0.0374
G3 X945.2312 Y-57.5859 Z-19.0000 I-0.0196 J16.5507
G2 X969.2775 Y-57.5522 Z-19.0000 I12.0233 J-0.0791
G2 X932.3752 Y-98.0953 Z-19.0000 I-40.5958 J-0.1155
G2 X888.0806 Y-57.7205 Z-19.0000 I-3.6952 J40.4309
G1 X888.0800 Y-6.8644 Z-19.0000
G2 X890.4042 Y-4.3706 Z-19.0000 I2.5000 J-0.0000
G0 X890.4042 Y-4.3706 Z6.0000
G0 X878.3647 Y-12.5904 Z6.0000
G0 X878.3647 Y-12.5904 Z-15.0000
G1 X878.3647 Y-12.5904 Z-19.0000
G2 X878.8000 Y-14.0000 Z-19.0000 I-2.0647 J-1.4096
G1 X878.8000 Y-198.1500 Z-19.0000
G2 X876.3000 Y-200.6500 Z-19.0000 I-2.5000 J0.0000
G1 X0.0000 Y-200.6500 Z-19.0000
G2 X-2.5000 Y-198.1500 Z-19.0000 I0.0000 J2.5000
G1 X-2.5000 Y-14.0000 Z-19.0000
G2 X0.0000 Y-11.5000 Z-19.0000 I2.5000 J-0.0000
G1 X876.3000 Y-11.5000 Z-19.0000
G2 X878.3647 Y-12.5904 Z-19.0000 I-0.0000 J-2.5000
G0 X878.3647 Y-12.5904 Z6.0000
G0 X885.7951 Y-92.0159 Z6.0000
G0 X885.7951 Y-92.0159 Z-15.0000
G1 X885.7951 Y-92.0159 Z-19.0000
G2 X886.0280 Y-92.0050 Z-19.0000 I0.2329 J-2.4891
G1 X898.7280 Y-92.0050 Z-19.0000
G2 X907.5741 Y-100.7148 Z-19.0000 I-0.0049 J-8.8521
G1 X907.5780 Y-145.2656 Z-19.0000
G3 X924.1483 Y-161.8538 Z-19.0000 I16.5507 J-0.0374
G3 X940.6792 Y-145.2265 Z-19.0000 I-0.0196 J16.5507
G2 X964.7255 Y-145.1928 Z-19.0000 I12.0233 J-0.0791
G2 X927.8232 Y-185.7359 Z-19.0000 I-40.5958 J-0.1155
G2 X883.5286 Y-145.3611 Z-19.0000 I-3.6952 J40.4309
G1 X883.5280 Y-94.5050 Z-19.0000
G2 X885.7951 Y-92.0159 Z-19.0000 I2.5000 J-0.0000
G0 X885.7951 Y-92.0159 Z6.0000
G0 X971.2220 Y-119.7334 Z6.0000
G0 X971.2220 Y-119.7334 Z-15.0000
G1 X971.2220 Y-119.7334 Z-19.0000
G2 X973.6000 Y-118.0050 Z-19.0000 I2.3780 J-0.7716
G1 X986.3000 Y-118.0050 Z-19.0000
G2 X995.1461 Y-126.7148 Z-19.0000 I-0.0049 J-8.8521
G1 X995.1500 Y-171.2656 Z-19.0000
G3 X1011.7203 Y-187.8538 Z-19.0000 I16.5507 J-0.0374
G3 X1028.2512 Y-171.2265 Z-19.0000 I-0.0196 J16.5507
G2 X1052.2975 Y-171.1928 Z-19.0000 I12.0233 J-0.0791
G2 X1015.3952 Y-211.7359 Z-19.0000 I-40.5958 J-0.1155
G2 X971.1006 Y-171.3611 Z-19.0000 I-3.6952 J40.4309
G1 X971.1000 Y-120.5050 Z-19.0000
G2 X971.2220 Y-119.7334 Z-19.0000 I2.5000 J-0.0000
G0 X971.2220 Y-119.7334 Z6.0000
G0 X1122.5000 Y-119.7334 Z6.0000
G0 X1122.5000 Y-119.7334 Z-15.0000
G1 X1122.5000 Y-119.7334 Z-19.0000
G1 X1122.5000 Y254.0000 Z-19.0000
G2 X1125.0000 Y256.5000 Z-19.0000 I2.5000 J-0.0000
G1 X1328.2000 Y256.5000 Z-19.0000
G2 X1330.7000 Y254.0000 Z-19.0000 I-0.0000 J-2.5000
G1 X1330.7000 Y0.0000 Z-19.0000
G2 X1328.2000 Y-2.5000 Z-19.0000 I-2.5000 J0.0000
G1 X1300.0175 Y-2.5000 Z-19.0000
G3 X1202.5000 Y-100.0175 Z-19.0000 I-0.0169 J-97.5006
G1 X1202.5000 Y-152.4000 Z-19.0000
G2 X1200.0000 Y-154.9000 Z-19.0000 I-2.5000 J0.0000
G1 X1125.0000 Y-154.9000 Z-19.0000
G2 X1122.5000 Y-152.4000 Z-19.0000 I0.0000 J2.5000
G1 X1122.5000 Y-119.7334 Z-19.0000
G0 X1122.5000 Y-119.7334 Z6.0000
G0 X1211.1501 Y-119.7323 Z6.0000
G0 X1211.1501 Y-119.7323 Z-15.0000
G1 X1211.1501 Y-119.7323 Z-19.0000
G1 X1211.1500 Y-109.9730 Z-19.0000
G2 X1213.6500 Y-107.4730 Z-19.0000 I2.5000 J-0.0000
G1 X1226.3500 Y-107.4730 Z-19.0000
G2 X1235.1961 Y-116.1828 Z-19.0000 I-0.0049 J-8.8521
G1 X1235.2000 Y-160.7336 Z-19.0000
G3 X1251.7703 Y-177.3218 Z-19.0000 I16.5507 J-0.0374
G3 X1268.3012 Y-160.6945 Z-19.0000 I-0.0196 J16.5507
G2 X1292.3475 Y-160.6608 Z-19.0000 I12.0233 J-0.0791
G2 X1255.4452 Y-201.2039 Z-19.0000 I-40.5958 J-0.1155
G2 X1211.1506 Y-160.8291 Z-19.0000 I-3.6952 J40.4309
G1 X1211.1501 Y-119.7323 Z-19.0000
G0 X1211.1501 Y-119.7323 Z6.0000
G0 X1242.8334 Y-100.5223 Z6.0000
G0 X1242.8334 Y-100.5223 Z-15.0000
G1 X1242.8334 Y-100.5223 Z-19.0000
G2 X1236.9506 Y-79.5292 Z-19.0000 I34.7166 J21.0492
G1 X1236.9500 Y-28.6731 Z-19.0000
G2 X1239.4500 Y-26.1731 Z-19.0000 I2.5000 J-0.0000
G1 X1252.1500 Y-26.1731 Z-19.0000
G2 X1260.9961 Y-34.8829 Z-19.0000 I-0.0049 J-8.8521
G1 X1261.0000 Y-79.4337 Z-19.0000
G3 X1277.5703 Y-96.0219 Z-19.0000 I16.5507 J-0.0374
G3 X1294.1012 Y-79.3946 Z-19.0000 I-0.0196 J16.5507
G2 X1318.1475 Y-79.3609 Z-19.0000 I12.0233 J-0.0791
G2 X1281.2452 Y-119.9040 Z-19.0000 I-40.5958 J-0.1155
G2 X1242.8334 Y-100.5223 Z-19.0000 I-3.6952 J40.4309
G0 X1242.8334 Y-100.5223 Z6.0000
G0 X1295.1120 Y-117.4854 Z6.0000
G0 X1295.1120 Y-117.4854 Z-15.0000
G1 X1295.1120 Y-117.4854 Z-19.0000
G2 X1297.4900 Y-115.7570 Z-19.0000 I2.3780 J-0.7716
G1 X1310.1900 Y-115.7570 Z-19.0000
G2 X1319.0361 Y-124.4668 Z-19.0000 I-0.0049 J-8.8521
G1 X1319.0400 Y-169.0176 Z-19.0000
G3 X1335.6103 Y-185.6058 Z-19.0000 I16.5507 J-0.0374
G3 X1352.1412 Y-168.9785 Z-19.0000 I-0.0196 J16.5507
G2 X1376.1875 Y-168.9448 Z-19.0000 I12.0233 J-0.0791
G2 X1339.2852 Y-209.4879 Z-19.0000 I-40.5958 J-0.1155
G2 X1294.9906 Y-169.1131 Z-19.0000 I-3.6952 J40.4309
G1 X1294.9900 Y-118.2570 Z-19.0000
G2 X1295.1120 Y-117.4854 Z-19.0000 I2.5000 J-0.0000
G1 X1295.1120 Y-117.4854 Z-21.0500
G2 X1297.4900 Y-115.7570 Z-21.0500 I2.3780 J-0.7716
G1 X1310.1900 Y-115.7570 Z-21.0500
G2 X1319.0361 Y-124.4668 Z-21.0500 I-0.0049 J-8.8521
G1 X1319.0400 Y-169.0176 Z-21.0500
G3 X1335.6103 Y-185.6058 Z-21.0500 I16.5507 J-0.0374
G3 X1352.1412 Y-168.9785 Z-21.0500 I-0.0196 J16.5507
G2 X1376.1875 Y-168.9448 Z-21.0500 I12.0233 J-0.0791
G2 X1339.2852 Y-209.4879 Z-21.0500 I-40.5958 J-0.1155
G2 X1294.9906 Y-169.1131 Z-21.0500 I-3.6952 J40.4309
G1 X1294.9900 Y-118.2570 Z-21.0500
G2 X1295.1120 Y-117.4854 Z-21.0500 I2.5000 J-0.0000
G0 X1295.1120 Y-117.4854 Z6.0000
G0 X1294.5779 Y-116.3293 Z6.0000
G0 X1294.5779 Y-116.3293 Z-17.0500
G1 X1294.5779 Y-116.3293 Z-21.0500
G2 X1281.2452 Y-119.9040 Z-21.0500 I-17.0262 J36.8529
G2 X1236.9506 Y-79.5292 Z-21.0500 I-3.6952 J40.4309
G1 X1236.9500 Y-28.6731 Z-21.0500
G2 X1239.4500 Y-26.1731 Z-21.0500 I2.5000 J-0.0000
G1 X1252.1500 Y-26.1731 Z-21.0500
G2 X1260.9961 Y-34.8829 Z-21.0500 I-0.0049 J-8.8521
G1 X1261.0000 Y-79.4337 Z-21.0500
G3 X1277.5703 Y-96.0219 Z-21.0500 I16.5507 J-0.0374
G3 X1294.1012 Y-79.3946 Z-21.0500 I-0.0196 J16.5507
G2 X1318.1475 Y-79.3609 Z-21.0500 I12.0233 J-0.0791
G2 X1294.5779 Y-116.3293 Z-21.0500 I-40.5958 J-0.1155
G0 X1294.5779 Y-116.3293 Z6.0000
G0 X1283.9963 Y-149.3244 Z6.0000
G0 X1283.9963 Y-149.3244 Z-17.0500
G1 X1283.9963 Y-149.3244 Z-21.0500
G2 X1292.3475 Y-160.6608 Z-21.0500 I-3.6718 J-11.4491
G2 X1255.4452 Y-201.2039 Z-21.0500 I-40.5958 J-0.1155
G2 X1211.1506 Y-160.8291 Z-21.0500 I-3.6952 J40.4309
G1 X1211.1500 Y-109.9730 Z-21.0500
G2 X1213.6500 Y-107.4730 Z-21.0500 I2.5000 J-0.0000
G1 X1226.3500 Y-107.4730 Z-21.0500
G2 X1235.1961 Y-116.1828 Z-21.0500 I-0.0049 J-8.8521
G1 X1235.2000 Y-160.7336 Z-21.0500
G3 X1251.7703 Y-177.3218 Z-21.0500 I16.5507 J-0.0374
G3 X1268.3012 Y-160.6945 Z-21.0500 I-0.0196 J16.5507
G2 X1283.9963 Y-149.3244 Z-21.0500 I12.0233 J-0.0791
G0 X1283.9963 Y-149.3244 Z6.0000
G0 X1202.5000 Y-149.3244 Z6.0000
G0 X1202.5000 Y-149.3244 Z-17.0500
G1 X1202.5000 Y-149.3244 Z-21.0500
G1 X1202.5000 Y-152.4000 Z-21.0500
G2 X1200.0000 Y-154.9000 Z-21.0500 I-2.5000 J0.0000
G1 X1125.0000 Y-154.9000 Z-21.0500
G2 X1122.5000 Y-152.4000 Z-21.0500 I0.0000 J2.5000
G1 X1122.5000 Y254.0000 Z-21.0500
G2 X1125.0000 Y256.5000 Z-21.0500 I2.5000 J-0.0000
G1 X1328.2000 Y256.5000 Z-21.0500
G2 X1330.7000 Y254.0000 Z-21.0500 I-0.0000 J-2.5000
G1 X1330.7000 Y0.0000 Z-21.0500
G2 X1328.2000 Y-2.5000 Z-21.0500 I-2.5000 J0.0000
G1 X1300.0175 Y-2.5000 Z-21.0500
G3 X1202.5000 Y-100.0175 Z-21.0500 I-0.0169 J-97.5006
G1 X1202.5000 Y-149.3244 Z-21.0500
G0 X1202.5000 Y-149.3244 Z6.0000
G0 X1101.5000 Y-149.3244 Z6.0000
G0 X1101.5000 Y-149.3244 Z-17.0500
G1 X1101.5000 Y-149.3244 Z-21.0500
G1 X1101.5000 Y-153.0000 Z-21.0500
G2 X1099.0000 Y-155.5000 Z-21.0500 I-2.5000 J0.0000
G1 X1024.0000 Y-155.5000 Z-21.0500
G2 X1021.5000 Y-153.0000 Z-21.0500 I0.0000 J2.5000
G1 X1021.5000 Y-100.6175 Z-21.0500
G3 X923.9825 Y-3.1000 Z-21.0500 I-97.5006 J0.0169
G1 X895.8000 Y-3.1000 Z-21.0500
G2 X893.3000 Y-0.6000 Z-21.0500 I0.0000 J2.5000
G1 X893.3000 Y253.4000 Z-21.0500
G2 X895.8000 Y255.9000 Z-21.0500 I2.5000 J-0.0000
G1 X1099.0000 Y255.9000 Z-21.0500
G2 X1101.5000 Y253.4000 Z-21.0500 I-0.0000 J-2.5000
G1 X1101.5000 Y-149.3244 Z-21.0500
G0 X1101.5000 Y-149.3244 Z6.0000
G0 X1051.5908 Y-167.2428 Z6.0000
G0 X1051.5908 Y-167.2428 Z-17.0500
G1 X1051.5908 Y-167.2428 Z-21.0500
G2 X1052.2975 Y-171.1928 Z-21.0500 I-11.3163 J-4.0628
G2 X1015.3952 Y-211.7359 Z-21.0500 I-40.5958 J-0.1155
G2 X971.1006 Y-171.3611 Z-21.0500 I-3.6952 J40.4309
G1 X971.1000 Y-120.5050 Z-21.0500
G2 X973.6000 Y-118.0050 Z-21.0500 I2.5000 J-0.0000
G1 X986.3000 Y-118.0050 Z-21.0500
G2 X995.1461 Y-126.7148 Z-21.0500 I-0.0049 J-8.8521
G1 X995.1500 Y-171.2656 Z-21.0500
G3 X1011.7203 Y-187.8538 Z-21.0500 I16.5507 J-0.0374
G3 X1028.2512 Y-171.2265 Z-21.0500 I-0.0196 J16.5507
G2 X1051.5908 Y-167.2428 Z-21.0500 I12.0233 J-0.0791
G0 X1051.5908 Y-167.2428 Z6.0000
G0 X964.1376 Y-152.1932 Z6.0000
G0 X964.1376 Y-152.1932 Z-17.0500
G1 X964.1376 Y-152.1932 Z-21.0500
G2 X927.8232 Y-185.7359 Z-21.0500 I-40.0079 J6.8848
G2 X883.5286 Y-145.3611 Z-21.0500 I-3.6952 J40.4309
G1 X883.5280 Y-94.5050 Z-21.0500
G2 X886.0280 Y-92.0050 Z-21.0500 I2.5000 J-0.0000
G1 X898.7280 Y-92.0050 Z-21.0500
G2 X907.5741 Y-100.7148 Z-21.0500 I-0.0049 J-8.8521
G1 X907.5780 Y-145.2656 Z-21.0500
G3 X924.1483 Y-161.8538 Z-21.0500 I16.5507 J-0.0374
G3 X940.6792 Y-145.2265 Z-21.0500 I-0.0196 J16.5507
G2 X964.7255 Y-145.1928 Z-21.0500 I12.0233 J-0.0791
G2 X964.1376 Y-152.1932 Z-21.0500 I-40.5958 J-0.1155
G0 X964.1376 Y-152.1932 Z6.0000
G0 X942.9390 Y-95.6777 Z6.0000
G0 X942.9390 Y-95.6777 Z-17.0500
G1 X942.9390 Y-95.6777 Z-21.0500
G2 X932.3752 Y-98.0953 Z-21.0500 I-14.2573 J38.0100
G2 X888.0806 Y-57.7205 Z-21.0500 I-3.6952 J40.4309
G1 X888.0800 Y-6.8644 Z-21.0500
G2 X890.5800 Y-4.3644 Z-21.0500 I2.5000 J-0.0000
G1 X903.2800 Y-4.3644 Z-21.0500
G2 X912.1261 Y-13.0742 Z-21.0500 I-0.0049 J-8.8521
G1 X912.1300 Y-57.6250 Z-21.0500
G3 X928.7003 Y-74.2132 Z-21.0500 I16.5507 J-0.0374
G3 X945.2312 Y-57.5859 Z-21.0500 I-0.0196 J16.5507
G2 X969.2775 Y-57.5522 Z-21.0500 I12.0233 J-0.0791
G2 X942.9390 Y-95.6777 Z-21.0500 I-40.5958 J-0.1155
G0 X942.9390 Y-95.6777 Z6.0000
G0 X878.8000 Y-95.6777 Z6.0000
G0 X878.8000 Y-95.6777 Z-17.0500
G1 X878.8000 Y-95.6777 Z-21.0500
G1 X878.8000 Y-198.1500 Z-21.0500
G2 X876.3000 Y-200.6500 Z-21.0500 I-2.5000 J0.0000
G1 X0.0000 Y-200.6500 Z-21.0500
G2 X-2.5000 Y-198.1500 Z-21.0500 I0.0000 J2.5000
G1 X-2.5000 Y-14.0000 Z-21.0500
G2 X0.0000 Y-11.5000 Z-21.0500 I2.5000 J-0.0000
G1 X876.3000 Y-11.5000 Z-21.0500
G2 X878.8000 Y-14.0000 Z-21.0500 I-0.0000 J-2.5000
G1 X878.8000 Y-95.6777 Z-21.0500
G0 X878.8000 Y-95.6777 Z6.0000
G0 X876.3653 Y-2.4991 Z6.0000
G0 X876.3653 Y-2.4991 Z-17.0500
G1 X876.3653 Y-2.4991 Z-21.0500
G2 X876.3000 Y-2.5000 Z-21.0500 I-0.0653 J2.4991
G1 X0.0000 Y-2.5000 Z-21.0500
G2 X-2.5000 Y0.0000 Z-21.0500 I0.0000 J2.5000
G1 X-2.5000 Y184.1500 Z-21.0500
G2 X0.0000 Y186.6500 Z-21.0500 I2.5000 J-0.0000
G1 X876.3000 Y186.6500 Z-21.0500
G2 X878.8000 Y184.1500 Z-21.0500 I-0.0000 J-2.5000
G1 X878.8000 Y0.0000 Z-21.0500
G2 X876.3653 Y-2.4991 Z-21.0500 I-2.5000 J0.0000
G0 X876.3653 Y-2.4991 Z6.0000
G0 X876.3000 Y198.5000 Z6.0000
G0 X876.3000 Y198.5000 Z-17.0500
G1 X876.3000 Y198.5000 Z-21.0500
G1 X0.0000 Y198.5000 Z-21.0500
G2 X-2.5000 Y201.0000 Z-21.0500 I0.0000 J2.5000
G1 X-2.5000 Y404.2000 Z-21.0500
G2 X0.0000 Y406.7000 Z-21.0500 I2.5000 J-0.0000
G1 X876.3000 Y406.7000 Z-21.0500
G2 X878.8000 Y404.2000 Z-21.0500 I-0.0000 J-2.5000
G1 X878.8000 Y201.0000 Z-21.0500
G2 X876.3000 Y198.5000 Z-21.0500 I-2.5000 J0.0000
G0 X876.3000 Y198.5000 Z6.0000
G0 X876.3000 Y416.5000 Z6.0000
G0 X876.3000 Y416.5000 Z-17.0500
G1 X876.3000 Y416.5000 Z-21.0500
G1 X0.0000 Y416.5000 Z-21.0500
G2 X-2.5000 Y419.0000 Z-21.0500 I0.0000 J2.5000
G1 X-2.5000 Y590.4500 Z-21.0500
G2 X0.0000 Y592.9500 Z-21.0500 I2.5000 J-0.0000
G1 X876.3000 Y592.9500 Z-21.0500
G2 X878.8000 Y590.4500 Z-21.0500 I-0.0000 J-2.5000
G1 X878.8000 Y419.0000 Z-21.0500
G2 X876.3000 Y416.5000 Z-21.0500 I-2.5000 J0.0000
G0 Z6.0000
(finish operation: Contour001)
(begin postamble)
M5
G17 G90
; M2
